lib/brands/icons/github.svg

<svg xmlns="http://www.w3.org/2000/svg" fill="none" aria-hidden="true" viewBox="0 0 48 48"><g id="github-Icon"><g id="Github"><path id="Vector" fill="#161514" d="M24.0002 0C10.747 0 0 11.0169 0 24.6076C0 35.4799 6.87679 44.7039 16.4128 47.9577C17.6123 48.1855 18.0526 47.4239 18.0526 46.7739C18.0526 46.1872 18.0304 44.2487 18.02 42.1925C11.3431 43.6811 9.93424 39.2891 9.93424 39.2891C8.84249 36.4448 7.26945 35.6885 7.26945 35.6885C5.09191 34.1613 7.43359 34.1926 7.43359 34.1926C9.84363 34.3662 11.1126 36.7285 11.1126 36.7285C13.2532 40.4904 16.7272 39.4028 18.0967 38.7741C18.3121 37.1836 18.9341 36.0981 19.6205 35.4836C14.2897 34.8613 8.6859 32.7513 8.6859 23.3224C8.6859 20.6358 9.62345 18.4406 11.1587 16.7174C10.9095 16.0976 10.088 13.5947 11.3912 10.2052C11.3912 10.2052 13.4066 9.54386 17.993 12.7276C19.9074 12.1824 21.9606 11.9089 24.0002 11.8996C26.0398 11.9089 28.0946 12.1824 30.0126 12.7276C34.5934 9.54386 36.606 10.2052 36.606 10.2052C37.9124 13.5947 37.0905 16.0976 36.8413 16.7174C38.3801 18.4406 39.3113 20.6358 39.3113 23.3224C39.3113 32.7737 33.6968 34.8548 28.3525 35.464C29.2133 36.2276 29.9804 37.7252 29.9804 40.021C29.9804 43.3135 29.9526 45.9634 29.9526 46.7739C29.9526 47.4288 30.3846 48.1961 31.6011 47.9544C41.132 44.697 48 35.4762 48 24.6076C48 11.0169 37.2546 0 24.0002 0"/><g id="Vector_2"><path fill="#161514" d="M9.16109 35.1623C9.10833 35.2833 8.92109 35.3197 8.75051 35.2365C8.57676 35.1571 8.47918 34.992 8.53551 34.8706C8.58708 34.7459 8.77471 34.7112 8.94807 34.7947C9.12222 34.8742 9.22139 35.0409 9.16109 35.1623Z"/><path fill="#161514" d="M10.1314 36.263C10.0172 36.3707 9.79382 36.3207 9.64228 36.1504C9.48559 35.9806 9.45623 35.7534 9.57207 35.6441C9.68989 35.5363 9.90648 35.5868 10.0636 35.7566C10.2203 35.9285 10.2508 36.154 10.1314 36.263Z"/><path fill="#161514" d="M11.0759 37.6663C10.9292 37.77 10.6892 37.6727 10.5408 37.4561C10.394 37.2394 10.394 36.9795 10.544 36.8755C10.6927 36.7714 10.9292 36.865 11.0795 37.08C11.2259 37.3003 11.2259 37.5601 11.0759 37.6663Z"/><path fill="#161514" d="M12.37 39.0219C12.2386 39.1692 11.959 39.1297 11.7543 38.9287C11.5448 38.7322 11.4865 38.4534 11.6182 38.3062C11.7511 38.1585 12.0324 38.2001 12.2386 38.3994C12.4465 38.5955 12.51 38.8763 12.37 39.0219Z"/><path fill="#161514" d="M14.1551 39.8091C14.0972 40 13.8278 40.0867 13.5565 40.0056C13.2855 39.9221 13.1082 39.6986 13.1629 39.5057C13.2193 39.3136 13.4898 39.2233 13.7631 39.31C14.0337 39.3931 14.2114 39.615 14.1551 39.8091Z"/><path fill="#161514" d="M16.1155 39.9552C16.1223 40.1561 15.8922 40.3227 15.6074 40.3264C15.321 40.3328 15.0893 40.1702 15.0861 39.9725C15.0861 39.7696 15.311 39.6045 15.5975 39.5997C15.8823 39.5941 16.1155 39.7554 16.1155 39.9552Z"/><path fill="#161514" d="M17.9399 39.6392C17.9741 39.8353 17.7761 40.0367 17.4933 40.0903C17.2152 40.142 16.9577 40.0209 16.9224 39.8265C16.8879 39.6255 17.0894 39.4242 17.3671 39.3721C17.6503 39.3221 17.9038 39.4399 17.9399 39.6392Z"/></g></g></g></svg>

<svg xmlns="http://www.w3.org/2000/svg" fill="none" aria-hidden="true" viewBox="0 0 48 48"><g fill="#161514"><path d="M24 0C10.747 0 0 11.017 0 24.608c0 10.872 6.877 20.096 16.413 23.35 1.2.227 1.64-.534 1.64-1.184 0-.587-.023-2.525-.033-4.581-6.677 1.488-8.086-2.904-8.086-2.904-1.092-2.844-2.665-3.6-2.665-3.6-2.177-1.528.165-1.496.165-1.496 2.41.173 3.679 2.535 3.679 2.535 2.14 3.762 5.614 2.675 6.984 2.046.215-1.59.837-2.676 1.523-3.29-5.33-.623-10.934-2.733-10.934-12.162 0-2.686.937-4.881 2.473-6.605-.25-.62-1.071-3.122.232-6.512 0 0 2.016-.661 6.602 2.523 1.914-.546 3.968-.82 6.007-.828 2.04.009 4.095.282 6.013.828 4.58-3.184 6.593-2.523 6.593-2.523 1.306 3.39.484 5.893.235 6.512 1.54 1.724 2.47 3.919 2.47 6.605 0 9.452-5.614 11.533-10.959 12.142.861.764 1.628 2.261 1.628 4.557 0 3.292-.027 5.942-.027 6.753 0 .655.432 1.422 1.648 1.18C41.132 44.697 48 35.476 48 24.608 48 11.017 37.255 0 24 0"/><path d="M9.161 35.162c-.053.121-.24.158-.41.075-.174-.08-.272-.245-.215-.366.051-.125.239-.16.412-.076.174.08.273.246.213.367Zm.97 1.101c-.114.108-.337.058-.489-.113-.156-.17-.186-.397-.07-.506.118-.108.334-.057.492.113.156.172.187.397.067.506Zm.945 1.403c-.147.104-.387.007-.535-.21-.147-.217-.147-.477.003-.58.149-.105.385-.011.535.204.147.22.147.48-.003.586Zm1.294 1.356c-.131.147-.411.108-.616-.093-.21-.197-.268-.476-.136-.623.133-.148.414-.106.62.093.209.197.272.477.132.623Zm1.785.788c-.058.19-.327.277-.598.196-.271-.084-.449-.307-.394-.5.056-.192.327-.283.6-.196.27.083.448.305.392.5Zm1.961.145c.006.201-.224.368-.509.371-.286.007-.518-.156-.52-.354 0-.202.224-.367.51-.372.285-.006.519.155.519.355Zm1.824-.315c.034.195-.164.397-.447.45-.278.052-.535-.07-.57-.264-.035-.2.166-.402.444-.454.283-.05.537.068.573.267Z"/></g></svg>
